X:0
T:St Kilda Song
G:dance song
S:p37 printed by J. Sibbald
M:C
L:1/4
Q:1/2=100
N:articulation, gracenotes and a trill removed
K:F
F>D CD |FA    G>F|FF c>d  |cA    cd |
FF  Ac |c>c   AG |Ac f>g  |fc    df |
FF  d>c|fc/A/ G>A|DF A/G/A|dc/A/ GF||
